X: 3
T:G-Dur-Lndler #6
M:3/4
L:1/8
S:j.m. schmalnauer: "tanz musik", bhlau, wien 1996 (compa bd. 5) 
C:trad
R:Lndler
N:"halbe Applikatur"
K:G
dg|b2 gfed|c2 [C2A2] [C2A2]|G2 [D2F2] [D2F2]|.G.A.B.c.d.g|b2 gfed|c2 [C2
A2] [C2A2]|G2 [D2F2] [D2F2]|G4   :||: dg|.b.g.d.b.g.d|.e.c"0".A.e.c.A|.F
.C.D.F.A.F|G"0"DGBdg|.b.g.d.b.g.d|.e.c"0".A.e.c.A|.F.C.D.F.A.F|G4  :|
